X:1
T:Title
%%score 1 { 2 | 3 }
L:1/8
Q:1/4=90
M:3/4
K:Eb
V:1 treble nm="Grand Piano, Soprano"
V:2 treble nm="Choir Pad, The Shadow of the Rock"
V:3 bass 
V:1
 [EG]>[FA] [GB]3 [_G=A] | [GB]>[Ac] [GB] [EG]3 | E>[EF] [EG]3 [EG] | [DA]>[EG] [DF]4 | %4
w: By~Frank~Marion~Davis * * *||||
 [EG]>[FA] [GB]3 [_G=A] | [GB]>[Ac] [GB] [EG]3 | E>[EF] [EG]3 [EA] | [EG]>[DF] E4 | %8
w: ||||
 [EG]>[GB] [Ge]3 [Bd] | [Ac]>[A=B] [Ac]4 | [Ac]>[Ad] [Ge]3 [GB] | [EG]>E [DF]4 | %12
w: ||||
 [EG]>[FA] [GB]3 [_G=A] | [GB]>[Ac] [GB] [EG]3 | E>[EF] [EG]3 [EA] | [EG]>[DF] E4- | E4 z2 |] %17
w: |||||
V:2
 B,>B, E3 E | E>E E[K:bass] B,3 | G,>A, B,3 B, | B,>B, B,4 | B,>B,[K:treble] E3 E | %5
 E>E E[K:bass] B,3 | G,>A, B,3 C | B,>A, G,4 | B,>B, B,3 B, | E>D E4 | E>C[K:bass] B,3 B, | %11
 B,>G, B,4 | B,>B,[K:treble] E3 E | E>E E[K:bass] B,3 | G,>A, B,3 C | B,>A, G,4- | G,4 z2 |] %17
V:3
 E,>E, E,3 E, | E,>E, E, E,3 | E,>F, E,3 E, | F,>E, B,,4 | E,>E, E,3 E, | E,>E, E, E,3 | %6
 E,>E, E,3 A,, | B,,>B,, E,4 | E,>E, E,3 G, | A,>A, A,4 | A,>A, E,3 E, | E,>E, B,,4 | %12
 E,>E, E,3 E, | E,>E, E, E,3 | E,>E, E,3 A,, | B,,>B,, E,4- | E,4 z2 |] %17

